source/img/sprite/logo.svg

<svg width="63" height="60" viewBox="0 0 63 60" fill="none" xmlns="http://www.w3.org/2000/svg">
<path fill-rule="evenodd" clip-rule="evenodd" d="M41.8924 17.3817H39.9359V15.3871C39.9359 14.0896 38.896 13.0127 37.6429 13.0127H25.6557C24.4027 13.0127 23.3627 14.0896 23.3627 15.3871V17.3817H21.2222C17.9508 17.3817 15.3212 20.1059 15.3212 23.4933V39.451C15.3212 42.8384 17.9508 45.5614 21.2222 45.5614H41.8924C45.1649 45.5614 47.7946 42.8384 47.7946 39.451V23.4933C47.7946 20.1372 45.1335 17.3817 41.8924 17.3817ZM62.1959 29.1297L49.3842 22.8915C49.3842 23.082 49.4145 23.2714 49.4145 23.4619V24.2216L60.6679 29.6989C61.3702 30.0474 61.645 30.9024 61.3399 31.5982L54.8881 45.8472C54.5515 46.5756 53.7258 46.8601 53.0539 46.543L47.9471 44.0733C46.5706 45.9738 44.3998 47.2087 41.9239 47.2087H38.9577L51.3105 53.1924C52.0139 53.5409 52.8396 53.2237 53.1447 52.4966L62.8993 30.9976C63.1741 30.332 62.869 29.477 62.1959 29.1297ZM21.2222 47.24C18.7451 47.24 16.544 45.9738 15.1675 44.0419L9.9699 46.5756C9.26649 46.9241 8.4408 46.6069 8.13567 45.8785L1.68385 31.6307C1.34729 30.9024 1.65241 30.0474 2.35582 29.7314L13.7304 24.1903V23.4933C13.7304 23.2714 13.7304 23.0495 13.7618 22.8288L0.796435 29.1297C0.0930237 29.477 -0.181819 30.332 0.123303 31.029L9.8779 52.5593C10.2145 53.2876 11.0402 53.5722 11.7133 53.2563L24.0661 47.2714H21.2222V47.24ZM42.0147 19.0917C42.993 19.1242 43.8804 19.5041 44.5838 20.1059L40.5473 24.2843C40.0582 23.5885 39.4771 22.9554 38.8354 22.385L42.0147 19.0917ZM31.4053 21.2454C36.8474 21.2454 41.2508 25.805 41.2508 31.4402C41.2508 37.0766 36.8474 41.6362 31.4053 41.6362C25.962 41.6362 21.5587 37.0453 21.5587 31.4088C21.5587 25.7724 25.962 21.2454 31.4053 21.2454ZM29.3859 19.7248L29.9973 19.0917H33.5447L32.995 19.6621C32.4744 19.5994 31.955 19.5355 31.4053 19.5355C30.7019 19.5355 30.0288 19.5994 29.3859 19.7248ZM39.5691 19.0917L37.4286 21.3081C36.6634 20.8342 35.8692 20.4218 35.0121 20.1372L36.0218 19.0917H39.5691ZM24.9826 15.3871C24.9826 15.0073 25.2889 14.7227 25.6255 14.7227H37.6114C37.9783 14.7227 38.2543 15.0398 38.2543 15.3871V16.3374H24.9826V15.3871ZM24.0055 19.0917H27.5214L25.3809 21.3081C23.8518 22.2898 22.537 23.6199 21.589 25.2346L20.7936 26.0582H17.2474L24.0055 19.0917ZM16.9726 23.4933C16.9726 21.0549 18.8988 19.0917 21.2222 19.0917H21.5284L16.9726 23.8104V23.4933ZM16.9726 39.451V38.8179L19.3565 36.3482H20.9473C21.1616 36.7908 21.3759 37.2346 21.6193 37.6784L17.6143 41.7941C17.2171 41.0971 16.9726 40.306 16.9726 39.451ZM21.2222 43.8526C20.3359 43.8526 19.5102 43.5668 18.8371 43.0929L22.6593 39.1351C23.2101 39.7996 23.8215 40.4013 24.4935 40.9078L21.6507 43.8526H21.2222ZM27.6437 43.8526H24.0964L25.9923 41.8894C26.7877 42.332 27.6437 42.6805 28.5311 42.9024L27.6437 43.8526ZM33.667 43.8526H30.1208L30.7019 43.2509C30.9465 43.2509 31.1596 43.2822 31.4053 43.2822C32.5361 43.2822 33.6367 43.0929 34.6767 42.7757L33.667 43.8526ZM42.137 43.8526L46.1129 39.7356C45.9895 41.9521 44.2775 43.726 42.137 43.8526ZM46.1432 37.1393L39.6611 43.8526H36.1138L43.3913 36.3169H46.1432V37.1393ZM46.1432 24.6967L44.8284 26.0582H41.6176C41.5873 25.9943 41.5559 25.899 41.4953 25.8363L45.6843 21.53C45.9895 22.1318 46.1432 22.7962 46.1432 23.5246V24.6967ZM31.4053 39.9575C35.9612 39.9575 39.6611 36.1264 39.6611 31.4088C39.6611 26.6913 35.9612 22.8601 31.4053 22.8601C26.8483 22.8601 23.1484 26.6913 23.1484 31.4088C23.1484 36.1264 26.8483 39.9575 31.4053 39.9575ZM31.4053 24.8861C34.8909 24.8861 37.7034 27.7996 37.7034 31.4088C37.7034 35.0181 34.8909 37.9316 31.4053 37.9316C27.9185 37.9316 25.1061 35.0181 25.1061 31.4088C25.0746 27.8309 27.9185 24.8861 31.4053 24.8861ZM26.2066 31.4088C26.2066 28.4327 28.5311 26.0269 31.4053 26.0269C32.5361 26.0269 33.575 26.4055 34.4321 27.0398C32.0167 29.5409 29.6002 32.0419 27.1849 34.543C26.5734 33.688 26.2066 32.581 26.2066 31.4088Z" fill="#131313"/>
<path fill-rule="evenodd" clip-rule="evenodd" d="M42.9931 51.0714C39.5995 53.1613 35.6247 54.3961 31.374 54.3961C27.1547 54.3961 23.2405 53.1926 19.8469 51.1354L14.1893 53.8897C18.9292 57.7208 24.8919 60 31.374 60C37.8875 60 43.8805 57.6895 48.6192 53.8583L42.9931 51.0714ZM13.6606 8.50769C8.60743 12.8092 5.00885 18.8857 3.8233 25.8366L8.3489 20.8972L10.2146 22.7024C11.7134 18.5855 14.2813 15.0075 17.6144 12.3799L16.5453 11.2825C20.8018 8.35695 25.9237 6.64938 31.4357 6.64938C36.9291 6.64938 42.0358 8.3461 46.2842 11.2837L45.2256 12.3799C48.4981 15.0075 51.066 18.5228 52.5648 22.5746L54.8276 21.1191L58.9852 25.6786C57.7426 18.8351 54.186 12.8019 49.1782 8.53422L51.0043 6.61803C45.5004 2.4697 38.7435 0 31.4054 0C24.0662 0 17.3081 2.43835 11.8042 6.58547L13.6606 8.50769Z" fill="#EE3D48"/>
</svg>

<svg width="63" height="60" viewBox="0 0 63 60" fill="none" xmlns="http://www.w3.org/2000/svg"><path fill-rule="evenodd" clip-rule="evenodd" d="M41.892 17.382h-1.956v-1.995c0-1.297-1.04-2.374-2.293-2.374H25.656c-1.253 0-2.293 1.077-2.293 2.374v1.995h-2.14c-3.272 0-5.902 2.724-5.902 6.111v15.958c0 3.387 2.63 6.11 5.901 6.11h20.67c3.273 0 5.903-2.723 5.903-6.11V23.493c0-3.356-2.662-6.111-5.903-6.111zM62.196 29.13l-12.812-6.238c0 .19.03.38.03.57v.76l11.254 5.477c.702.348.977 1.203.672 1.9l-6.452 14.248c-.337.729-1.162 1.013-1.834.696l-5.107-2.47c-1.376 1.9-3.547 3.136-6.023 3.136h-2.966l12.352 5.983c.704.349 1.53.032 1.835-.695l9.754-21.5c.275-.665-.03-1.52-.703-1.867zM21.222 47.24c-2.477 0-4.678-1.266-6.055-3.198L9.97 46.576a1.333 1.333 0 01-1.834-.697L1.684 31.63c-.337-.729-.032-1.584.672-1.9l11.374-5.54v-.698c0-.222 0-.444.032-.664l-12.966 6.3c-.703.348-.978 1.203-.673 1.9l9.755 21.53c.336.729 1.162 1.013 1.835.697l12.353-5.985h-2.844v-.031zm20.793-28.148a4.151 4.151 0 012.569 1.014l-4.037 4.178a11.082 11.082 0 00-1.712-1.899l3.18-3.293zm-10.61 2.153c5.442 0 9.846 4.56 9.846 10.195 0 5.637-4.404 10.196-9.846 10.196-5.443 0-9.846-4.59-9.846-10.227 0-5.637 4.403-10.164 9.846-10.164zm-2.02-1.52l.612-.633h3.548l-.55.57c-.52-.063-1.04-.127-1.59-.127-.703 0-1.376.064-2.02.19zm10.184-.633l-2.14 2.216c-.766-.474-1.56-.886-2.417-1.17l1.01-1.046h3.547zm-14.586-3.705c0-.38.306-.664.642-.664h11.986c.367 0 .643.317.643.664v.95H24.983v-.95zm-.977 3.705h3.515l-2.14 2.216a11.74 11.74 0 00-3.792 3.927l-.795.823h-3.547l6.759-6.966zm-7.033 4.401c0-2.438 1.926-4.401 4.25-4.401h.305l-4.555 4.718v-.317zm0 15.958v-.633l2.384-2.47h1.59c.215.443.429.887.672 1.33l-4.005 4.116a4.71 4.71 0 01-.641-2.343zm4.25 4.402a4.141 4.141 0 01-2.386-.76l3.822-3.958a11 11 0 001.835 1.773l-2.843 2.945h-.429zm6.42 0h-3.547l1.896-1.964c.796.443 1.652.791 2.54 1.013l-.888.95zm6.024 0h-3.546l.58-.602c.245 0 .459.031.704.031 1.131 0 2.232-.19 3.272-.506l-1.01 1.077zm8.47 0l3.976-4.117c-.123 2.216-1.835 3.99-3.976 4.117zm4.006-6.714l-6.482 6.714h-3.547l7.277-7.536h2.752v.822zm0-12.442l-1.315 1.361h-3.21c-.03-.064-.062-.159-.123-.222l4.19-4.306a4.36 4.36 0 01.458 1.995v1.172zm-14.738 15.26c4.556 0 8.256-3.83 8.256-8.548s-3.7-8.549-8.256-8.549c-4.557 0-8.257 3.831-8.257 8.549 0 4.717 3.7 8.549 8.257 8.549zm0-15.07c3.486 0 6.298 2.913 6.298 6.522 0 3.61-2.812 6.523-6.298 6.523s-6.299-2.914-6.299-6.523c-.031-3.578 2.813-6.523 6.3-6.523zm-5.198 6.522c0-2.976 2.324-5.382 5.198-5.382 1.131 0 2.17.378 3.027 1.013l-7.247 7.503c-.612-.855-.978-1.962-.978-3.134z" fill="#131313"/><path fill-rule="evenodd" clip-rule="evenodd" d="M42.993 51.071c-3.394 2.09-7.368 3.325-11.619 3.325-4.22 0-8.133-1.203-11.527-3.26l-5.658 2.754C18.93 57.72 24.892 60 31.374 60c6.514 0 12.506-2.31 17.245-6.142l-5.626-2.787zM13.661 8.508a29.203 29.203 0 00-9.838 17.329l4.526-4.94 1.866 1.805c1.498-4.117 4.066-7.695 7.4-10.322l-1.07-1.098a26.188 26.188 0 0114.89-4.633 25.99 25.99 0 0114.85 4.635l-1.06 1.096a23.58 23.58 0 017.34 10.195l2.263-1.456 4.157 4.56c-1.242-6.844-4.799-12.877-9.807-17.145l1.826-1.916C45.5 2.47 38.744 0 31.405 0s-14.097 2.438-19.6 6.585l1.856 1.923z" fill="#EE3D48"/></svg>
